Polyvinyl Acetate.svg

<?xml version="1.0"?>

<!DOCTYPE svg PUBLIC '-//W3C//DTD SVG 1.0//EN' 'http://www.w3.org/TR/2001/REC-SVG-20010904/DTD/svg10.dtd'>
<svg fill-opacity="1" xmlns:xlink="http://www.w3.org/1999/xlink" color-rendering="auto" color-interpolation="auto" stroke="black" text-rendering="auto" stroke-linecap="square" width="1242" stroke-miterlimit="10" stroke-opacity="1" shape-rendering="auto" fill="black" stroke-dasharray="none" font-weight="normal" stroke-width="1" height="1356" xmlns="http://www.w3.org/2000/svg" font-family="&apos;Dialog&apos;" font-style="normal" stroke-linejoin="miter" font-size="12" stroke-dashoffset="0" image-rendering="auto">
  <!--Generated by Marvin with Batik SVG Generator-->
  <defs id="genericDefs" />
  <g>
    <defs id="defs1">
      <clipPath clipPathUnits="userSpaceOnUse" id="clipPath1">
        <path d="M0 0 L1242 0 L1242 1356 L0 1356 L0 0 Z" />
      </clipPath>
      <clipPath clipPathUnits="userSpaceOnUse" id="clipPath2">
        <path d="M1148.5999755859375 157 C1160.197998046875 157 1169.5999755859375 181.5124053955078 1169.5999755859375 211.75 L1169.5999755859375 292.04998779296875 C1169.5999755859375 322.28759765625 1160.197998046875 346.79998779296875 1148.5999755859375 346.79998779296875 L1129 346.79998779296875 C1117.4019775390625 346.79998779296875 1108 322.28759765625 1108 292.04998779296875 L1108 211.75 C1108 181.5124053955078 1117.4019775390625 157 1129 157 ZM275.6000061035156 324 C287.1979675292969 324 296.6000061035156 348.5124206542969 296.6000061035156 378.75 L296.6000061035156 459.04998779296875 C296.6000061035156 489.28759765625 287.1979675292969 513.7999877929688 275.6000061035156 513.7999877929688 L256 513.7999877929688 C244.4020233154297 513.7999877929688 235 489.28759765625 235 459.04998779296875 L235 378.75 C235 348.5124206542969 244.4020233154297 324 256 324 ZM158.5 756.8729248046875 C158.5 756.8729248046875 158.5 756.8729248046875 158.49998474121094 756.8729248046875 L158.5 756.8729248046875 L158.5 756.8729248046875 ZM210 763.4451904296875 L210 763.4452514648438 L210 763.4452514648438 C210 763.4451904296875 210 763.4451904296875 210 763.4451904296875 ZM869.9249877929688 661 C893.3280639648438 661 912.2999877929688 685.5123901367188 912.2999877929688 715.75 L912.2999877929688 796.0499877929688 C912.2999877929688 826.28759765625 893.3280639648438 850.7999877929688 869.9249877929688 850.7999877929688 L830.375 850.7999877929688 C806.971923828125 850.7999877929688 788 826.28759765625 788 796.0499877929688 L788 715.75 C788 685.5123901367188 806.971923828125 661 830.375 661 ZM286.125 660 C307.8712158203125 660 325.5 684.5123901367188 325.5 714.75 L325.5 795.0499877929688 C325.5 825.28759765625 307.8712158203125 849.7999877929688 286.125 849.7999877929688 L249.375 849.7999877929688 C235.44171142578125 849.7999877929688 223.19874572753906 839.737060546875 216.1999969482422 824.5527954101562 L216.1999969482422 824.5527954101562 L216.1999969482422 853.5999755859375 C216.1999969482422 876.7959594726562 205.79061889648438 895.5999755859375 192.9499969482422 895.5999755859375 L171.25 895.5999755859375 C158.4093780517578 895.5999755859375 148 876.7959594726562 148 853.5999755859375 L148 832.273193359375 L148 832.273193359375 C140.808837890625 843.0535278320312 130.53353881835938 849.7999877929688 119.125 849.7999877929688 L82.375 849.7999877929688 C60.628787994384766 849.7999877929688 43 825.28759765625 43 795.0499877929688 L43 714.75 C43 684.5123901367188 60.628787994384766 660 82.375 660 L119.125 660 C140.8712158203125 660 158.5 684.5123901367188 158.5 714.75 L158.5 756.8729248046875 C162.16104125976562 752.5277099609375 166.5421142578125 750 171.25 750 L192.9499969482422 750 C199.68646240234375 750 205.7537841796875 755.1754150390625 210 763.4451904296875 L210 763.4451904296875 L210 714.75 C210 684.5123901367188 227.6287841796875 660 249.375 660 ZM578.9249877929688 1165 C602.3280639648438 1165 621.2999877929688 1189.512451171875 621.2999877929688 1219.75 L621.2999877929688 1300.050048828125 C621.2999877929688 1330.28759765625 602.3280639648438 1354.800048828125 578.9249877929688 1354.800048828125 L539.375 1354.800048828125 C515.971923828125 1354.800048828125 497 1330.28759765625 497 1300.050048828125 L497 1219.75 C497 1189.512451171875 515.971923828125 1165 539.375 1165 ZM0 0 L0 1356 L1242 1356 L1242 0 Z" />
      </clipPath>
      <clipPath clipPathUnits="userSpaceOnUse" id="clipPath3">
        <path d="M1028.1322021484375 543.5262451171875 L1033.786865234375 543.5262451171875 L1033.786865234375 557.737548828125 L1028.1322021484375 557.737548828125 L1028.1322021484375 543.5262451171875 Z" />
      </clipPath>
    </defs>
    <g fill="rgb(238,238,238)" fill-opacity="0" stroke-opacity="0" stroke="rgb(238,238,238)">
      <rect width="1242" x="0" height="1356" y="0" stroke="none" />
    </g>
    <g text-rendering="optimizeLegibility" font-size="145" shape-rendering="geometricPrecision" font-family="sans-serif">
      <text xml:space="preserve" x="1108" y="303" clip-path="url(#clipPath1)" stroke="none">*
      </text>
      <text xml:space="preserve" x="788" y="807" clip-path="url(#clipPath1)" stroke="none">O
      </text>
      <text xml:space="preserve" x="43" y="806" clip-path="url(#clipPath1)" stroke="none">H
      </text>
      <text font-size="111" x="148" y="862" clip-path="url(#clipPath1)" stroke="none" xml:space="preserve">3
      </text>
      <text xml:space="preserve" x="210" y="806" clip-path="url(#clipPath1)" stroke="none">C
      </text>
      <text xml:space="preserve" x="497" y="1311" clip-path="url(#clipPath1)" stroke="none">O
      </text>
      <text xml:space="preserve" x="235" y="470" clip-path="url(#clipPath1)" stroke="none">*
      </text>
      <line clip-path="url(#clipPath2)" fill="none" x1="1053.3476111872037" x2="844.9574989734283" y1="295.76736766995464" y2="415.90617881061917" stroke-width="19.636363983154297" />
      <line clip-path="url(#clipPath2)" fill="none" x1="844.9574989734283" x2="554.0790380198778" y1="415.90617881061917" y2="247.72258581387814" stroke-width="19.636363983154297" />
      <line clip-path="url(#clipPath2)" fill="none" x1="844.9574989734283" x2="844.805705294815" y1="415.90617881061917" y2="656.4467154555566" stroke-width="19.636363983154297" />
      <line clip-path="url(#clipPath2)" fill="none" x1="762.0450831173773" x2="553.6549709035971" y1="799.5836408689618" y2="919.7224520096142" stroke-width="19.636363983154297" />
      <line clip-path="url(#clipPath2)" fill="none" x1="553.6549709035971" x2="345.4166523684514" y1="919.7224520096142" y2="799.320726505323" stroke-width="19.636363983154297" />
      <line clip-path="url(#clipPath2)" fill="none" x1="583.894964882405" x2="583.7431712037943" y1="919.7415350298454" y2="1160.282071674791" stroke-width="19.636363983154297" />
      <line clip-path="url(#clipPath2)" fill="none" x1="523.4149769247892" x2="523.2631832461785" y1="919.7033689893831" y2="1160.2439056343287" stroke-width="19.636363983154297" />
      <line clip-path="url(#clipPath2)" fill="none" x1="554.0790380198778" x2="345.6889258061108" y1="247.72258581387814" y2="367.861396954531" stroke-width="19.636363983154297" />
      <line clip-path="url(#clipPath2)" fill="none" x1="1000.9738945919344" x2="1001.3606122832098" y1="652.4619807701024" y2="39.64804916747471" stroke-width="13.636363983154297" />
      <line clip-path="url(#clipPath2)" fill="none" x1="1000.9738945919344" x2="939.6925014316716" y1="652.4619807701024" y2="652.4233090009749" stroke-width="13.636363983154297" />
      <line clip-path="url(#clipPath2)" fill="none" x1="1001.3606122832098" x2="940.079219122947" y1="39.64804916747471" y2="39.60937739834717" stroke-width="13.636363983154297" />
      <line clip-path="url(#clipPath2)" fill="none" x1="437.570663284303" x2="437.18394559304033" y1="39.29226817722247" y2="652.1061997798279" stroke-width="13.636363983154297" />
      <line clip-path="url(#clipPath2)" fill="none" x1="437.570663284303" x2="498.8520564445636" y1="39.29226817722247" y2="39.330939946348735" stroke-width="13.636363983154297" />
      <line clip-path="url(#clipPath2)" fill="none" x1="437.18394559304033" x2="498.4653387533009" y1="652.1061997798279" y2="652.1448715489541" stroke-width="13.636363983154297" />
    </g>
    <g text-rendering="optimizeLegibility" font-size="10" shape-rendering="geometricPrecision" font-family="sans-serif" transform="matrix(13.439999999999992,0,-1.6790671417346332E-12,13.439999999999992,-12790.096198623545,-6761.992782595105)">
      <text xml:space="preserve" x="1028.142822265625" y="554.5685424804688" clip-path="url(#clipPath3)" stroke="none">n
      </text>
    </g>
  </g>
</svg>

<?xml version="1.0"?>
<svg xmlns:cc="http://web.resource.org/cc/" xmlns:rdf="http://www.w3.org/1999/02/22-rdf-syntax-ns#" xmlns="http://www.w3.org/2000/svg" xmlns:dc="http://purl.org/dc/elements/1.1/" xmlns:xlink="http://www.w3.org/1999/xlink" font-size="12" text-rendering="auto" color-rendering="auto" shape-rendering="auto" stroke="black" stroke-linecap="square" fill="black" font-family="'Dialog'" width="1242" stroke-miterlimit="10" image-rendering="auto" height="1356" color-interpolation="auto">
 <defs id="defs1">
  <clipPath id="clipPath1" clipPathUnits="userSpaceOnUse">
   <path d="m0 0h1242v1356h-1242v-1356z"/>
  </clipPath>
  <clipPath id="clipPath2" clipPathUnits="userSpaceOnUse">
   <path d="m1148.6 157c11.6 0 21 24.51 21 54.75v80.3c0 30.24-9.4 54.75-21 54.75h-19.6c-11.6 0-21-24.51-21-54.75v-80.3c0-30.24 9.4-54.75 21-54.75zm-873 167c11.6 0 21 24.51 21 54.75v80.3c0 30.24-9.4 54.75-21 54.75h-19.6c-11.6 0-21-24.51-21-54.75v-80.3c0-30.24 9.4-54.75 21-54.75zm-117.1 432.87zm51.5 6.58zm659.92-102.45c23.41 0 42.38 24.51 42.38 54.75v80.3c0 30.24-18.97 54.75-42.38 54.75h-39.54c-23.41 0-42.38-24.51-42.38-54.75v-80.3c0-30.24 18.97-54.75 42.38-54.75zm-583.8-1c21.75 0 39.38 24.51 39.38 54.75v80.3c0 30.24-17.63 54.75-39.38 54.75h-36.74c-13.94 0-26.18-10.06-33.18-25.25v29.05c0 23.2-10.41 42-23.25 42h-21.7c-12.84 0-23.25-18.8-23.25-42v-21.33c-7.19 10.78-17.47 17.53-28.88 17.53h-36.745c-21.746 0-39.375-24.51-39.375-54.75v-80.3c0-30.24 17.629-54.75 39.375-54.75h36.745c21.75 0 39.38 24.51 39.38 54.75v42.12c3.66-4.34 8.04-6.87 12.75-6.87h21.7c6.74 0 12.8 5.18 17.05 13.45v-48.7c0-30.24 17.63-54.75 39.38-54.75zm292.8 505c23.41 0 42.38 24.5 42.38 54.8v80.3c0 30.2-18.97 54.7-42.38 54.7h-39.54c-23.41 0-42.38-24.5-42.38-54.7v-80.3c0-30.3 18.97-54.8 42.38-54.8zm-578.92-1165v1356h1242v-1356z"/>
  </clipPath>
  <clipPath id="clipPath3" clipPathUnits="userSpaceOnUse">
   <path d="m1028.1 543.53h5.7v14.21h-5.7v-14.21z"/>
  </clipPath>
 </defs>
 <g stroke="#eee" fill-opacity="0" stroke-opacity="0" fill="#eee">
  <rect y="0" width="1242" stroke="none" height="1356" x="0"/>
 </g>
 <g font-size="145" font-family="sans-serif" text-rendering="optimizeLegibility" shape-rendering="geometricPrecision">
  <text y="303" x="1108" xml:space="preserve" stroke="none" clip-path="url(#clipPath1)">*
      </text>
  <text y="807" x="788" xml:space="preserve" stroke="none" clip-path="url(#clipPath1)">O
      </text>
  <text y="806" x="43" xml:space="preserve" stroke="none" clip-path="url(#clipPath1)">H
      </text>
  <text font-size="111" clip-path="url(#clipPath1)" xml:space="preserve" stroke="none" y="862" x="148">3
      </text>
  <text y="806" x="210" xml:space="preserve" stroke="none" clip-path="url(#clipPath1)">C
      </text>
  <text y="1311" x="497" xml:space="preserve" stroke="none" clip-path="url(#clipPath1)">O
      </text>
  <text y="470" x="235" xml:space="preserve" stroke="none" clip-path="url(#clipPath1)">*
      </text>
  <line stroke-width="19.636" y2="415.91" clip-path="url(#clipPath2)" y1="295.77" x2="844.96" x1="1053.3" fill="none"/>
  <line stroke-width="19.636" y2="247.72" clip-path="url(#clipPath2)" y1="415.91" x2="554.08" x1="844.96" fill="none"/>
  <line stroke-width="19.636" y2="656.45" clip-path="url(#clipPath2)" y1="415.91" x2="844.81" x1="844.96" fill="none"/>
  <line stroke-width="19.636" y2="919.72" clip-path="url(#clipPath2)" y1="799.58" x2="553.65" x1="762.05" fill="none"/>
  <line stroke-width="19.636" y2="799.32" clip-path="url(#clipPath2)" y1="919.72" x2="345.42" x1="553.65" fill="none"/>
  <line stroke-width="19.636" y2="1160.3" clip-path="url(#clipPath2)" y1="919.74" x2="583.74" x1="583.89" fill="none"/>
  <line stroke-width="19.636" y2="1160.2" clip-path="url(#clipPath2)" y1="919.7" x2="523.26" x1="523.41" fill="none"/>
  <line stroke-width="19.636" y2="367.86" clip-path="url(#clipPath2)" y1="247.72" x2="345.69" x1="554.08" fill="none"/>
  <line stroke-width="13.636" y2="39.648" clip-path="url(#clipPath2)" y1="652.46" x2="1001.4" x1="1001" fill="none"/>
  <line stroke-width="13.636" y2="652.42" clip-path="url(#clipPath2)" y1="652.46" x2="939.69" x1="1001" fill="none"/>
  <line stroke-width="13.636" y2="39.609" clip-path="url(#clipPath2)" y1="39.648" x2="940.08" x1="1001.4" fill="none"/>
  <line stroke-width="13.636" y2="652.11" clip-path="url(#clipPath2)" y1="39.292" x2="437.18" x1="437.57" fill="none"/>
  <line stroke-width="13.636" y2="39.331" clip-path="url(#clipPath2)" y1="39.292" x2="498.85" x1="437.57" fill="none"/>
  <line stroke-width="13.636" y2="652.14" clip-path="url(#clipPath2)" y1="652.11" x2="498.47" x1="437.18" fill="none"/>
 </g>
 <g font-size="10" font-family="sans-serif" text-rendering="optimizeLegibility" transform="matrix(13.44 0 -1.6791e-12 13.44 -12790 -6762)" shape-rendering="geometricPrecision">
  <text y="554.5685424804688" x="1028.142822265625" xml:space="preserve" stroke="none" clip-path="url(#clipPath3)">n
      </text>
 </g>
 <metadata>
  <rdf:RDF>
   <cc:Work>
    <dc:format>image/svg+xml</dc:format>
    <dc:type rdf:resource="http://purl.org/dc/dcmitype/StillImage"/>
    <cc:license rdf:resource="http://creativecommons.org/licenses/publicdomain/"/>
    <dc:publisher>
     <cc:Agent rdf:about="http://openclipart.org/">
      <dc:title>Openclipart</dc:title>
     </cc:Agent>
    </dc:publisher>
   </cc:Work>
   <cc:License rdf:about="http://creativecommons.org/licenses/publicdomain/">
    <cc:permits rdf:resource="http://creativecommons.org/ns#Reproduction"/>
    <cc:permits rdf:resource="http://creativecommons.org/ns#Distribution"/>
    <cc:permits rdf:resource="http://creativecommons.org/ns#DerivativeWorks"/>
   </cc:License>
  </rdf:RDF>
 </metadata>
</svg>
